!!!!SEGMENT: Distler_Jahrkreis_30_Wach-auf-meins-Herzens-Schoene_3v.krn
!!!COM: Distler, Hugo
!!!CDT: 1908-1942
!!!OPR@@DE: Der Jahrkreis
!!!OPR@EN: The Year Cycle
!!!OTL@@DE: Wach auf, mein's Herzens Schoene
!!!OTL@EN: ...
!!!OPS: 5
!!!ONM: 30
!!!RNB: 2-voice setting for second verse not encoded.
**kern	**text	**kern	**text	**kern	**text
*part3	*part3	*part2	*part2	*part1	*part1
*staff3	*staff3	*staff2	*staff2	*staff1	*staff1
*Ialto	*	*Isoprn	*	*Isoprn	*
*clefG2	*	*clefG2	*	*clefG2	*
*k[b-]	*	*k[b-]	*	*k[b-]	*
*MM120	*	*MM120	*	*MM120	*
*M3/4	*	*M3/4	*	*M3/4	*
=1	=1	=1	=1	=1	=1
2.r	.	4f	Wach'	4cc	Wach'
.	.	4f	auf,	(4.ff	auf,
.	.	4cc	mein's	.	.
.	.	.	.	8ee)	.
=2	=2	=2	=2	=2	=2
4A	Wach'	(4.a	Her-	4dd	mein's
4e	auf,	.	.	(4.cc	Her-
.	.	8g)	.	.	.
4e	mein's	4f	zens	.	.
.	.	.	.	8dd)	.
=3	=3	=3	=3	=3	=3
4d	Her-	4g	Schoe-	(8ccL	zens
.	.	.	.	8b-J)	.
4c	zens	4a,	ne,	2a	Schoe-
[4f	Schoe-	4b-	du	.	.
=4	=4	=4	=4	=4	=4
4f]	.	2cc	chri-	8a,	ne,
.	.	.	.	8a	du
4f,	ne,	.	.	(4.dd	chri-
4g	du	4b-	sten-	.	.
.	.	.	.	8eeLL	.
!!LO:LB:g=original
=5	=5	=5	=5	=5	=5
8d	chri-	(4a	li-	8.ff	.
8e	sten-	.	.	.	.
.	.	.	.	16eeJJ)	.
4.f	li-	4f)	.	8cc	sten-
.	.	.	.	4dd	li-
.	.	4g	che	.	.
8e	che	.	.	8dd	che
=6	=6	=6	=6	=6	=6
2.f	Schar,	2.a	Schar,	2.cc	Schar,
=7:|!	=7	=7:|!	=7	=7:|!	=7
2.r	.	4cc	das	2.r	.
.	.	4cc	jetzt	.	.
.	.	4b-	so	.	.
=8	=8	=8	=8	=8	=8
4f	das	2a	lieb-	2.r	.
4f	jetzt	.	.	.	.
4e	so	4g	lich	.	.
=9	=9	=9	=9	=9	=9
(4.d	lieb-	(4.f	klin-	4dd	das
.	.	.	.	4dd	jetzt
8e	.	8g	.	.	.
4f)	.	4a	.	4cc	so
!!LO:LB:g=original
=10	=10	=10	=10	=10	=10
4B-	lich	8gL	.	(4..b-	lieb-
.	.	8fJ	.	.	.
4c	klin-	4.e	.	.	.
.	.	.	.	16cc)	.
4c,	get:	.	.	(8.aLL	lich
.	.	8d)	.	.	.
.	.	.	.	16b-JJ)	.
=11	=11	=11	=11	=11	=11
4e	es	2.c,	get:	4g	klin-
4e	leucht't	.	.	4g,	get:
4g	recht,	.	.	4cc	es
=12	=12	=12	=12	=12	=12
2d	als	4f	es	(4.a	leucht't
.	.	4f	leucht't	.	.
.	.	.	.	8b-L	.
4c	der	[4f	recht,	8cc	.
.	.	.	.	8aJ	.
=13	=13	=13	=13	=13	=13
(4.B-	hel-	4f]	.	2dd)	.
.	.	4.g	als	.	.
8cL	.	.	.	.	.
8d	.	.	.	4cc	recht,
8eJ	.	8g	der	.	.
=14	=14	=14	=14	=14	=14
2f	.	(8aLL	hel-	8cc	als
.	.	16b-	.	8cc	der
.	.	16cc	.	.	.
.	.	8b-	.	(8ddL	hel-
.	.	8a	.	8eeJ	.
4A	.	8g	.	[4ff	.
.	.	8fJJ	.	.	.
!!LO:LB:g=original
=15	=15	=15	=15	=15	=15
4c)	.	4g)	.	4ff])	.
4c	le	4g	le	4ee	le
4f,	Tag,	4f,	Tag,	[4ff	Tag,
=16	=16	=16	=16	=16	=16
4d	durch	4b-	durch	4ff]	.
(4.c	Got-	4a	Got-	4r	.
.	.	4f	tes	4b-	durch
8dL	.	.	.	.	.
=17	=17	=17	=17	=17	=17
8c	.	4d	Guet'	2a	Got-
8B-	.	.	.	.	.
8A	.	2c	her-	.	.
8GJ)	.	.	.	.	.
4A	tes	.	.	4g	tes
=18	=18	=18	=18	=18	=18
2B-	Guet'	(4.d	drin-	(4.f	Guet'
.	.	8e	.	8g)	.
4F	her-	[4f	.	4a	her-
=19	=19	=19	=19	=19	=19
2.c	drin-	8fL]	.	2.g	drin-
.	.	8fJ	.	.	.
.	.	2e)	.	.	.
=20	=20	=20	=20	=20	=20
2.f	get.	2.f	get.	2.f	get.
==	==	==	==	==	==
*-	*-	*-	*-	*-	*-
!!!YOR: Bärenreiter-Ausgabe 676
!!!YOY: 1933
!!!EFL: 30/52
!!!URL-pdf: https://imslp.eu/files/imglnks/euimg/7/7d/IMSLP834545-PMLP518834-5-jahrkreis-EA--original-paper-600dpi.pdf#page=56 First edition, Kassel: Bärenreiter, 1933. Plate BA 676.
!!!URL-imslp: https://imslp.org/wiki/Der_Jahrkreis,_Op.5_(Distler,_Hugo)#IMSLP834545
!!!system-decoration: [(s1,s2,s3)]
!!!ENC: Lucas Hofmann
!!!END: 2023/11/12
!!!title: @{OPR@@DE}, Op. @{OPS}, Nr. @{ONM}. @{OTL@@DE}
